static/icons/arrow.svg

<svg width="23" height="19" viewBox="0 0 23 19" fill="none" xmlns="http://www.w3.org/2000/svg">
<path d="M22.6324 8.61265L14.3263 0.36467C14.0892 0.129231 13.7731 0 13.4362 0C13.0989 0 12.783 0.129417 12.5459 0.36467L11.7918 1.11369C11.5549 1.34876 11.4244 1.66274 11.4244 1.99752C11.4244 2.33211 11.5549 2.65667 11.7918 2.89174L16.6375 7.71397H1.24255C0.548443 7.71397 0 8.25355 0 8.94297V10.0019C0 10.6913 0.548443 11.2853 1.24255 11.2853H16.6924L11.792 16.1344C11.5551 16.3699 11.4245 16.6753 11.4245 17.0101C11.4245 17.3445 11.5551 17.6544 11.792 17.8897L12.5461 18.6363C12.7832 18.8717 13.099 19 13.4364 19C13.7733 19 14.0893 18.87 14.3265 18.6346L22.6326 10.3868C22.8702 10.1506 23.0009 9.83533 23 9.50019C23.0007 9.16392 22.8702 8.84846 22.6324 8.61265Z" fill="#00FFF0"/>
</svg>

<svg width="23" height="19" fill="none" xmlns="http://www.w3.org/2000/svg"><path d="M22.6 8.6L14.3.4c-.2-.3-.5-.4-.9-.4-.3 0-.6.1-.9.4l-.7.7c-.2.2-.4.6-.4.9 0 .3.2.7.4.9l4.8 4.8H1.2C.5 7.7 0 8.3 0 9V10c0 .7.5 1.3 1.2 1.3h15.5l-5 4.8c-.1.3-.3.6-.3 1l.4.8.7.7c.3.3.6.4 1 .4.3 0 .6-.1.8-.4l8.3-8.2c.3-.2.4-.6.4-.9 0-.3-.1-.7-.4-.9z" fill="#00FFF0"/></svg>
